X: 32798
T: Poor Liza Jane
R: reel
M: 4/4
K: Amajor
a3a a2e2|f2e2 c4|AaaA afea|f3a Aceg|
a3a abae|f2e2 c3e|ceef ecBA|1 A4 Aceg:|2 A4 Acfe||
c3 c2ecA|B2A2 A3e|c2ed cBA2|F4 EFAc|
B2B2 B3e|cB3 B3e|ceef ecBA|1 A3 A2 cfe:|2 A4 Acfa||

